X:1
T:Title
%%score { ( 1 3 ) | ( 2 4 5 ) }
L:1/8
M:4/4
K:Ab
V:1 treble nm="Grand Piano"
V:3 treble 
V:2 bass 
V:4 bass 
V:5 bass 
V:1
 z8[Q:1/4=108] | [E,CE]2 [CF]2 [CE]2 [CA]2 | z2 [DG]4[K:bass][K:treble] z2 | %3
 [DF]2 [DE]2 [DGB]2 [DG_c]2 | [CA]2 z2 z4 | [=EBc]2 [EBd]2 [EBc]2 [EG]2 | [CFB]2 [CFA]4 [C=EG]2 | %7
 [CF]2 [C=EG]2 [CFA]2 [=DAB]2 | B2- [DFB-]2 [DEB]2 z2 | [E,CE]2 [CF]2 [CE]2 [CA]2 | %10
 z2 [DG]4[K:bass][K:treble] z2 | [DF]2 [DE]2 [DEB]2 [FG_c]2 | [=EGc]6[K:bass][K:treble] z2 | %13
 [E=Ac]2 [CFA]2 [DFB]2 [FAc]2 | z2 d4[K:bass][K:treble] z2 | [EAc]2 [A,E]2 [A,=DF]2 [_DG]2 | %16
[M:3/4] A6 |[M:1/4] E2 |[M:4/4] [EAc]2 [EAc]2 [EAe]2 [EAc]2 | z2 B4 z2 | %20
 [CFA]2 [CFA]2 [CFc]2 [CFA]2 | G6 z2 | [A,DF]2 [A,DF]2 [A,DA]2 [A,DF]2 | %23
 [A,E]2 [A,DF]2 [DEG]2 [CEA]2 | [=DAc]2 [DAB]2 [DF]2 [DAc]2 |[M:3/4] B6 |[M:1/4] E2 | %27
[M:4/4] [EAc]2 [EAc]2 [EAe]2 [EAc]2 | z2 B4 z2 | [CFA]2 [CFA]2 [CFc]2 [CFA]2 | G6 z2 | %31
 [A,DF]2 [DFA]2 [DAd]2 [FAdf]2 | [EAe]2 [EAc]4 [EAc]2 | [=DAc]2 [DAB]2 [_DGc]2 [DGB]2 | %34
[M:3/4] [CEA]6 |] %35
V:2
 z4 z2 E2 | A,,2 [E,,E,]2 [A,,E,]2 [E,,E,]2 | [B,,E,]2 [E,,E,]2 z2 [A,,E,]2 | %3
 [G,,E,]2 [E,,E,]2 [B,,E,]2 [E,,E,]2 | [A,,E,]2 [E,,E,]2 A,,2[K:treble] c2 | %5
 [G,,G,]2 [C,,C,]2 [G,,G,]2 [C,,C,]2 | [F,,F,]2 [C,,C,]2 [F,,F,]2 [G,,G,]2 | %7
 [A,,A,]2 [G,,G,]2 [F,,F,]2 [B,,,B,,]2 | [E,,E,]2 [F,,F,]2 [G,,G,]2 E2 | %9
 A,,2 [E,,E,]2 [A,,E,]2 [E,,E,]2 | [B,,E,]2 [E,,E,]2 z2 [A,,E,]2 | %11
 [G,,E,]2 [E,,E,]2 [G,,E,]2 [D,,D,]2 | [C,,C,]2 =E,,2 G,,2 [C,,C,]2 | %13
 [F,,F,]2 [E,,E,]2 [D,,D,]2 [C,,C,]2 | z2[K:treble] [FB]4[K:bass] z2 | [E,,E,]2 C,2 B,,2 E,2 | %16
[M:3/4] E,2 F,2 E,2 |[M:1/4] z2 |[M:4/4] [A,,A,]2 [A,,A,]2 [C,C]2 [A,,A,]2 | %19
 [E,,E,]2 [A,,A,]2 [G,,G,]2 [=E,,E,]2 | [F,,F,]2 [F,,F,]2 [A,,A,]2 [F,,F,]2 | %21
 [C,,C,]2 [F,,F,]2 [=E,,=E,]2 [C,,C,]2 | [D,,D,]2 [D,,D,]2 [F,,F,]2 [D,,D,]2 | %23
 [C,,C,]2 [D,,D,]2 [B,,,B,,]2 [A,,,A,,]2 | [B,,,B,,]2 [B,,,B,,]2 [B,,,B,,]2 [B,,,B,,]2 | %25
[M:3/4] [E,,E,]2 [F,,F,]2 [G,,G,]2 |[M:1/4] z2 |[M:4/4] [A,,A,]2 [A,,A,]2 [C,C]2 [A,,A,]2 | %28
 [E,,E,]2 [A,,A,]2 [G,,G,]2 [=E,,E,]2 | [F,,F,]2 [F,,F,]2 [A,,A,]2 [F,,F,]2 | %30
 [C,,C,]2 [F,,F,]2 [=E,,=E,]2 [C,,C,]2 | [D,,D,]2 [D,,D,]2 [F,,F,]2 [D,,D,]2 | %32
 [A,,A,]2 [A,,A,]2 [C,C]2 [A,,A,]2 | [F,,F,]2 [F,,F,]2 [E,,E,]2 [E,,E,]2 |[M:3/4] [A,,E,A,]6 |] %35
V:3
 x8 | x8 | [DA]2 z2[K:bass] [B,,E,]2[K:treble] [DF]2 | x8 | c2- [CFc-]2 [E,CEc]2 z2 | x8 | x8 | %7
 x8 | [DG]2 z2 z4 | x8 | [DA]2 z2[K:bass] [B,,E,]2[K:treble] [DF]2 | x8 | %12
 z2[K:bass] =E,2 G,2[K:treble] [=EBc]2 | x8 | [FBe]2 z2[K:bass] D,2[K:treble] [FBd]2 | x8 | %16
[M:3/4] C2 D2 C2 |[M:1/4] x2 |[M:4/4] x8 | [DGB]2 [DF]2 [DE]2 [CGc]2 | x8 | %21
 [B,=E]2 [B,=D]2 [B,C]2 [B,EG]2 | x8 | x8 | x8 |[M:3/4] [DG]2 [DF]2 [DE]2 |[M:1/4] x2 |[M:4/4] x8 | %28
 [DGB]2 [DF]2 [DE]2 [CGc]2 | x8 | [B,=E]2 [B,=D]2 [B,C]2 [B,EG]2 | x8 | x8 | x8 |[M:3/4] x6 |] %35
V:4
 x8 | x8 | x8 | x8 | x6[K:treble] x2 | x8 | x8 | x8 | x8 | x8 | x8 | x8 | x8 | x8 | %14
 [B,,,B,,]4[K:treble][K:bass] z4 | x8 |[M:3/4] A,,6 |[M:1/4] x2 |[M:4/4] x8 | x8 | x8 | x8 | x8 | %23
 x8 | x8 |[M:3/4] x6 |[M:1/4] x2 |[M:4/4] x8 | x8 | x8 | x8 | x8 | x8 | x8 |[M:3/4] x6 |] %35
V:5
 x8 | x8 | x8 | x8 | x6[K:treble] x2 | x8 | x8 | x8 | x8 | x8 | x8 | x8 | x8 | x8 | %14
 z4[K:treble][K:bass] D,,2 B,,,2 | x8 |[M:3/4] x6 |[M:1/4] x2 |[M:4/4] x8 | x8 | x8 | x8 | x8 | %23
 x8 | x8 |[M:3/4] x6 |[M:1/4] x2 |[M:4/4] x8 | x8 | x8 | x8 | x8 | x8 | x8 |[M:3/4] x6 |] %35

